assets/icons/qvision/image_not_supported.svg

<svg width="24" height="24" viewBox="0 0 24 24" fill="none" xmlns="http://www.w3.org/2000/svg">
<g clip-path="url(#clip0_147_3522)">
<path d="M21.8999 21.9L13.4099 13.41L3.58994 3.59001L2.09994 2.10001L0.689941 3.51001L2.99994 5.83001V19C2.99994 20.1 3.89994 21 4.99994 21H18.1699L20.4799 23.31L21.8999 21.9ZM4.99994 18L8.49994 13.5L10.9999 16.51L12.1699 15L15.1699 18H4.99994ZM20.9999 18.17L5.82994 3.00001H18.9999C20.0999 3.00001 20.9999 3.90001 20.9999 5.00001V18.17Z" fill="#323232"/>
</g>
<defs>
<clipPath id="clip0_147_3522">
<rect width="24" height="24" fill="white"/>
</clipPath>
</defs>
</svg>

<svg xmlns="http://www.w3.org/2000/svg" enable-background="new 0 0 24 24" height="24" viewBox="0 0 24 24" width="24"><g><rect fill="none" height="24" width="24"/><path d="M21.9,21.9l-8.49-8.49l0,0L3.59,3.59l0,0L2.1,2.1L0.69,3.51L3,5.83V19c0,1.1,0.9,2,2,2h13.17l2.31,2.31L21.9,21.9z M5,18 l3.5-4.5l2.5,3.01L12.17,15l3,3H5z M21,18.17L5.83,3H19c1.1,0,2,0.9,2,2V18.17z"/></g></svg>
